X:136
T: KUCKUK KUCKUK RUFT AUS DEM WALD
N: B0627
O: Europa, Mitteleuropa, Deutschland
R: Kinder -, Jahreszeiten - Lied, Fruehling
M: 3/4
L: 1/4
K: G
 | d2B | d2B |
AGA | G2z |
AAB | c2A |
BBc | c2B |
AGA | G2z

@@@ Tune index: 2354
